!!!!SEGMENT: pl-kk--kk-i-382--029_richling--gaude-mater-polonia.krn
!!!id: 18xx:1516
!!!COM: Rychling, Wincenty Wacław
!!!COM-rism: pe50046026
!!!CDT: 1841/01/09-1896/01/11
!!!CNT: Polish
!!!OTL: Gaude Mater Polonia
!!!PDT:
!!!SMS-siglum: PL-Kk
!!!SMS-shelfmark: Kk.I.382
!!!NIFC-rismID: 1001139161
!!!URL-scan: http://repozytorium.nifc.pl/skany/pl-kk-nut--i-382
!!!ONB-nifc: UWAGA: obsada: A (B 1), T 2, B 2; A (B 1): skan 0178; T 2: skan 0100; B 2: skan 0258
!!!SMS-variant:
!!!SMS-altvar:
**kern	**text	**text	**kern	**text	**text	**kern	**text	**text	**kern
*part4	*part4	*part4	*part3	*part3	*part3	*part2	*part2	*part2	*part1
*staff4	*staff4	*staff4	*staff3	*staff3	*staff3	*staff2	*staff2	*staff2	*staff1
*I"Basso II	*	*	*I"Tenore II	*	*	*I"Alto vel Basso I	*	*	*I"Soprano vel Tenore I.
*I'B 2	*	*	*I'T 2	*	*	*I'A (B 1)	*	*	*I'S (T 1)
*clefF4	*	*	*clefG2	*	*	*clefF4	*	*	*clefG2
*k[f#c#]	*	*	*k[f#c#]	*	*	*k[f#c#]	*	*	*k[f#c#]
*D:	*	*	*D:	*	*	*D:	*	*	*D:
*M2/4	*	*	*M2/4	*	*	*M2/4	*	*	*M2/4
=1	=1	=1	=1	=1	=1	=1	=1	=1	=1
!	!	!	!	!	!	!	!	!	!LO:TX:t=P:problem:brak partii Sopranu w rękopisie.
4.D\	Gau-	Er-	4.f#/	Gau-	Er-	4.D/	Gau-	Er-	2ryy
8D\	-de	-go	8f#/	-de	-go	8D/	-de	-go	.
=2	=2	=2	=2	=2	=2	=2	=2	=2	=2
4BB/	Ma-	fe-	4f#/	Ma-	fe-	4D/	Ma-	fe-	2ryy
8GG/	-ter	-lix	8g/	-ter	-lix	8D/	-ter	-lix	.
8BB/	Po-	Cra-	8g/	Po-	Cra-	8D/	Po-	Cra-	.
=3	=3	=3	=3	=3	=3	=3	=3	=3	=3
4..D\	-lo-	-co-	4..g/	-lo-	-co-	4..D/	-lo-	-co-	2ryy
16D\	-ni-	-vi[[a]]-	16f#/	-ni-	-vi-	16D/	-ni-	-vi-	.
=4	=4	=4	=4	=4	=4	=4	=4	=4	=4
4D\	-a	-a	4f#/	-a	-a	4D/	-a	-a	2ryy
4r	.	.	4r	.	.	4r	.	.	.
=5	=5	=5	=5	=5	=5	=5	=5	=5	=5
4D\	pro-	sa-	4f#/	pro-	sa-	4D/	pro-	sa-	2ryy
4D\	-le	-cro	4dd\	-le	-cro	4A\	-le	-cro	.
=6	=6	=6	=6	=6	=6	=6	=6	=6	=6
8G\	fe-	do-	8b/	fe-	do-	8G\	fe-	do-	2ryy
4G\	-cun-	-ta-	4b/	-cun-	-ta-	4G\	-cun-	-ta-	.
8GG/	-da	-ta	8b/	-da	-ta	8G\	-da	-ta	.
=7	=7	=7	=7	=7	=7	=7	=7	=7	=7
4.AA/	no-	cor-	4.a/	no-	cor-	4.F#\	no-	cor-	2ryy
8AA/	-bi-	-po-	8a/	-bi-	-po-	8G\	-bi-	-po-	.
=8	=8	=8	=8	=8	=8	=8	=8	=8	=8
4AA/	-li	-re	4a/	-li	-re	4E\	-li	-re	2ryy
4r	.	.	4r	.	.	4r	.	.	.
!LO:LB:g=original	!	!	!	!	!	!LO:LB:g=original	!	!	!
=9	=9	=9	=9	=9	=9	=9	=9	=9	=9
4.D\	sum-	De-	4.f#/	sum-	De-	4.D/	sum-	De-	2ryy
8C#\	-mi	-um	8a/	-mi	-um	8E/	-mi	-um	.
!	!	!	!LO:LB:g=original	!	!	!	!	!	!
=10	=10	=10	=10	=10	=10	=10	=10	=10	=10
4BB/	Re-	qui	4g#X/	Re-	qui	4E/	Re-	qui	2ryy
8AA/	-gis	fe-	8a/	-gis	fe-	8E/	-gis	fe-	.
8AA/	ma-	-cit	8a/	ma-	-cit	8E/	ma-	-cit	.
=11	=11	=11	=11	=11	=11	=11	=11	=11	=11
4..D\	-gna-	om-	4..g#X/	-gna-	om-	4..E/	-gna-	om-	2ryy
16D\	-li-	-ni-	16g#/	-li-	-ni-	16G#X\	-li-	-ni-	.
=12	=12	=12	=12	=12	=12	=12	=12	=12	=12
2C#/	-a	-a	(>8ee\L	-a	-a	(>4A\	-a-	-a	2ryy
.	.	.	8a\J)	.	.	.	.	.	.
.	.	.	4a#X/	.	.	4Gn\)	-,	.	.
=13	=13	=13	=13	=13	=13	=13	=13	=13	=13
4D\	Lau-	be-	4b/	Lau-	Be-	4F#\	Lau-	Be-	2ryy
8D\	-de	-ne-	8b/	-de	-ne-	8F#\	-de	-ne-	.
8GG#X/	fre-	-dic	8e/	fre-	-dic	8D/	fre-	-dic	.
=14	=14	=14	=14	=14	=14	=14	=14	=14	=14
(>8AA/L	-quen-	o-	(>4e/	-quen-	o-	(>8C#/L	-quen-	o-	2ryy
8C#/J	.	.	.	.	.	8E/J	.	.	.
8E\)	.	.	(>8a/)	.	.	8E/)	.	.	.
8E\	-ta	-mni	8g#X/)	-ta	-mni	8E/	-ta	-mni	.
=15	=15	=15	=15	=15	=15	=15	=15	=15	=15
4..E\	vi-	tem-	4..g#X/	vi-	tem-	4..E/	vi-	tem-	2ryy
16AA/	-gi-	-po-	16e/	-gi-	-po-	16C#/	-gi-	-po-	.
=16	=16	=16	=16	=16	=16	=16	=16	=16	=16
4AA/	-li	-re	4e/	-li	-re	4C#/	-li	-re	2ryy
4r	.	.	4r	.	.	4r	.	.	.
!LO:LB:g=original	!	!	!	!	!	!LO:LB:g=original	!	!	!
=17:|!|:	=17:|!|:	=17:|!|:	=17:|!|:	=17:|!|:	=17:|!|:	=17:|!|:	=17:|!|:	=17:|!|:	=17:|!|:
4AA/	Cu-	Sit	4a/	Cu-	Sit	4E/	Cu-	Sit	2ryy
8AA/	-jus	Tri-	8a/	-jus	Tri-	8E/	-jus	Tri-	.
8AA/	be-	-ni-	8a/	be-	-ni-	8E/	be-	-ni-	.
!	!	!	!LO:LB:g=original	!	!	!	!	!	!
=18	=18	=18	=18	=18	=18	=18	=18	=18	=18
*	*^	*	*	*	*	*	*	*	*
!LO:TX:t=P:problem:łuk przekreślony	!	!	!	!	!	!	!	!	!	!
(>4E\	-ni-	.	-ta-	(>4.a/	-ni-	-ta-	(>4G\	-ni-	-ta-	2ryy
8D\)	.	[[ma-	.	.	.	.	8F#\)	.	.	.
*	*above	*	*	*	*	*	*	*	*	*
!LO:TX:t=P:problem:tekst z oznaczeniem "above" nad nutami	!	!	!	!	!	!	!	!	!	!
8C#\	-gna	-gna-	-ti	8a/)	-gna	-ti	8E\	-gna	-ti	.
=19	=19	=19	=19	=19	=19	=19	=19	=19	=19	=19
4.D\	gra-	-li-	glo-	4.a/	gra-	glo-	4.D/	gra-	glo-	2ryy
8AA/	-ti-	-a	-ri-	8cc#\	-ti-	-ri-	8A\	-ti-	-ri-	.
=20	=20	=20	=20	=20	=20	=20	=20	=20	=20	=20
(>4.BB/	-a	Sta-	-a	(>4.dd\	-a-	-a	(>4.F#\	-a-	-a	2ryy
8C#X/)	.	-ni]]	.	8a#X/)	-,	.	8E\)	-,	.	.
*	*v	*v	*	*	*	*	*	*	*	*
=21	=21	=21	=21	=21	=21	=21	=21	=21	=21
*	*below	*	*	*	*	*	*	*	*
4D\	Sta-	Laus	4b/	Sta-	Laus	4F#\	Sta-	Laus	2ryy
4D#X\	-ni-	ho-	4b/	-ni-	ho-	4A\	-ni-	ho-	.
=22	=22	=22	=22	=22	=22	=22	=22	=22	=22
!LO:SIC:l:v:s=-sla-	!	!	!	!	!	!	!	!	!
4E\	Pla-	-nor	4b/	-sla-	-nor	4G\	-sla-	-nor	2ryy
!LO:SIC:l:v:s=-i	!	!	!	!	!	!	!	!	!
8E\	-ti	ju-	8b/	-i	ju-	8G\	-i	ju-	.
8E\	Pon-	-bi-	8b/	Pon-	-bi-	8G\	Pon-	-bi-	.
=23	=23	=23	=23	=23	=23	=23	=23	=23	=23
4..AA/	-ti-	-la-	4..a/	-ti-	-la-	4..F#\	-ti-	-la-	2ryy
16A\	-fi-	-ti-	16dd\	-fi-	-ti-	16A\	-fi-	-ti-	.
=24	=24	=24	=24	=24	=24	=24	=24	=24	=24
4A\	-cis	-o	4cc#\	-cis	-o.	4A\	-cis	-o	2ryy
4r	.	.	4r	.	.	4r	.	.	.
!LO:LB:g=original	!	!	!	!	!	!	!	!	!
=25	=25	=25	=25	=25	=25	=25	=25	=25	=25
4D\	Pas-	De	4dd\	Pas-	De	4A\	Pas-	De	2ryy
4D\	-si-	Mar-	4a/	-si-	Mar-	4F#\	-si-	Mar-	.
!	!	!	!	!	!	!LO:LB:g=original	!	!	!
=26	=26	=26	=26	=26	=26	=26	=26	=26	=26
4C#/	-o-	-ty-	4a#X/	-o-	-ty-	4F#\	-o-	-ty-	2ryy
8C#/	-nis	-ris	8a#/	-nis	-ris	8F#\	-nis	-ris	.
8C#/	in	vi-	8a#/	in-	vi-	8F#\	in-	vi-	.
!	!	!	!LO:LB:g=original	!	!	!	!	!	!
=27	=27	=27	=27	=27	=27	=27	=27	=27	=27
4.BB/	si-	-cto-	4.b/	-sig-	-cto-	4.F#\	-si-	-cto-	2ryy
8C#/	-gni-	-ri-	8a#X/	-ni-	-ri-	8F#\	-gni-	-ri-	.
=28	=28	=28	=28	=28	=28	=28	=28	=28	=28
(>8D/L	-a	-a	(>8b/L	-a-	-a-	(>8F#/L	-a,	-a	2ryy
8BB/J)	.	.	8f#/J)	.	.	8D/J	.	.	.
4GG/	si-	sit	4b/	-a,	-,	4G\)	si-	sit	.
=29	=29	=29	=29	=29	=29	=29	=29	=29	=29
4AA/	-gnis	no-	4f#/	si-	sit	4D\	-gnis	no-	2ryy
4AA/	ful-	-bis	4a/	-gnis	no-	8F#/L	.	-bis	.
.	.	.	.	.	.	8Fn/J	ful-	.	.
=30	=30	=30	=30	=30	=30	=30	=30	=30	=30
[>4AA/	-gent	e-	4g/	ful-	-bis	[>4E/	-gent	e-	2ryy
8AA/]	mi-	.	8e/	-gent	e-	8E/]	.	.	.
8AA/	.	-xul-	8a/	mi-	-xul-	8E/	mi-	-xul-	.
=31	=31	=31	=31	=31	=31	=31	=31	=31	=31
4..A\	-ri-	-ta-	4..cc#\	-ri-	-ta-	4..A\	-ri-	-ta-	2ryy
16D\	-fi-	-ti-	16a/	-fi-	-ti-	16F#\	-fi-	-ti-	.
=32	=32	=32	=32	=32	=32	=32	=32	=32	=32
4D\	-cis	-o.	4a/	-cis	-o,	4F#\	-cis	-o.	2ryy
4r	.	.	4r	.	.	4r	.	.	.
=:|!	=:|!	=:|!	=:|!	=:|!	=:|!	=:|!	=:|!	=:|!	=:|!
*-	*-	*-	*-	*-	*-	*-	*-	*-	*-
!!!system-decoration: [(s1,s2,s3,s4)]
!!!RDF**kern: > = above
!!!RDF**kern: < = below
!!!EED: Mateusz Mrugas
!!!EST: 2021-02-06
!!!ENC: Mateusz Solarz
!!!END: 2021-01-29
